X: 1
T: Spring Morning Rain
C: Ishmael the Fiddler, 2031
R: waltz
Z: 2015 John Chambers <jc:trillian.mit.edu>
M: 3/4
L: 1/8
K: G
|:\
"G"G2 G>B A>G | "D"F2 D2 D2 |\
"C(Em)"E2E>G F>E | "G"D2 B,2 B,2 |\
"C"C2 C>E D>C | "G"B,>D G2 F2 |
[1 "Am"E2 A2 G2 | "D"F2 G2 A2 :|\
[2 "Am"E2 A2 c2 | "D"d2 f2 a2 |:\
"G"b2 g4 | "D"a2 f4 |\
"Em"g2 f2 e2 | "G"d2 B4 |
[1 "C"c2 c>e d>c | "G"B>d g2 f2 |\
e2 f2 g2 | "D"f2 g2 a2 :|\
[2 "C"cB AG FE | "G"dc BA GF |\
"D"A2 D2 F2 | "G"G6 |]
